X:332
T:Old Dangerfield
C:by Bill Monroe
N:arranged & TablEdit by S.M. Block 
R:bluegrass
L:1/8
Q:1/4=258
M:4/4
K:A
z6 {=G}AA |: "A"[A2A2] =GE D=C A,=G, | A,2 AA =cA c^c | A2 =GE D=C A,C | "E"DE D=C "A"A,2 (3DE=G | 
A2 =GE D=C A,=G, | A,2 AA =cA c^c | A2 =GE D=C A,C |1 D"E"E D=C "A"A,2 AA :|2 D"E"E D=C "A"A,2 A,A, | 
|: "A"A,=C E=G A2 AA | "D"DE FA d2 dd | "A"A,=C E=G A2 AA | "E"EG Bd e2 ee | "A"A,=C E=G A2 AA | 
"D"DE FA d2 AB | "A"=cB A=G ED =CD |1 ^D"E"E A2 "A"A2 A,A, :|2 ^D"E"E A2 "A"A2 e2 | 
M:2/4
e2 e2 | 
M:4/4
|: "A"=g[ae] [ae][ae] [ae][ae] [ae][ae] | [a2e2] aa ac' ae | "E"[^d=G][e^G] [eeG][eeG] [eeG][eeG] [eeG][eeG] | 
[e2e2G2] ef =gf e2 | [=fc][^fd] [fd][fd] [fd][fd] [fd][fd] | [f2d2] AB =cB A=G | 
"A"[c=G][cA] [cA][cA] [cA][cA] [cA][cA] | [c2A2] AB =cB A2 | "G"[^AF][B=G] [BG][BG] [BG][BG] [BG][BG] | 
[B2=G2] =cB AG ED | "A"[AD][AE] [AE][AE] [AE][AE] [AE][AE] | [A2E2] =GF ED =C2 | 
"D"[FD][FD] [FD][FD] [FD][FD] [FD][FD] | "E"[F2D2] DE D=C A,=G, | "A"[E2A,2] [EA,][EA,] [EA,][EA,] [EA,][EA,] | 
|1 [E2A,2] ee e2 =g2 :|2 [E8A,8] | 


